X: 20161
T: WHEN MAGGIE GANGS AWA
C: John Turnbull
R: Strathspey.
%R: strathspey
B: W. Hamilton "Universal Tune-Book" Vol. 2 Glasgow 1846 p.16 #1
S: http://s3-eu-west-1.amazonaws.com/itma.dl.printmaterial/book_pdfs/hamiltonvol2web.pdf
Z: 2016 John Chambers <jc:trillian.mit.edu>
M: C
L: 1/16
K: Am
% - - - - - - - - - - - - - - - - - - - - - - - - -
e2 |\
e3d cBA^G AE3EF3 | =G3AB3c d4df3 |\
e3d cBA^G AE3A3B | c3dB3c A6 :|
|: c2 |\
G3AB3c d3ed3c | B3cd3e f4f3d |\
ea3 edcB cf3 Be3 | c3dB3c | A6 :|
% - - - - - - - - - - - - - - - - - - - - - - - - -
